packages/dnb-eufemia/assets/icons/speedometer_medium.svg

<svg width="24" height="24" viewBox="0 0 24 24" fill="none" xmlns="http://www.w3.org/2000/svg">
<g clip-path="url(#clip0_3179_24)">
<path d="M12 4.5C8.90668 4.52338 6.04787 5.87259 3.98612 8M12 4.5V6.5M12 4.5C15.13 4.52366 17.9897 5.87186 20.0427 8M0.754946 15.5H2.99999M0.754946 15.5C0.844678 12.6214 2.07183 9.97525 3.98612 8M0.754946 15.5C0.734187 16.166 0.749987 16.8338 0.749987 17.5C0.749987 18.6046 1.64542 19.5 2.74999 19.5C4.83332 19.5 6.91665 19.5 8.99999 19.5M3.98612 8L5.49999 9.5M20.0427 8L18.5 9.5M20.0427 8C21.9469 9.97388 23.1571 12.6187 23.2451 15.5M23.2451 15.5H21M23.2451 15.5C23.2655 16.166 23.25 16.8338 23.25 17.5C23.25 18.6046 22.3546 19.5 21.25 19.5C19.1667 19.5 17.0833 19.5 15 19.5M8.99999 19.5V19C8.99999 17.366 10.366 16 12 16C12.1719 16 12.3408 16.0151 12.5055 16.0441M8.99999 19.5C11 19.5 13 19.5 15 19.5M15 19.5V19C15 17.5379 13.9063 16.2903 12.5055 16.0441M12.5055 16.0441L14 11" stroke="black" stroke-width="1.5" stroke-linecap="round" stroke-linejoin="round"/>
</g>
<defs>
<clipPath id="clip0_3179_24">
<rect width="24" height="24" fill="white"/>
</clipPath>
</defs>
</svg>

<svg width="24" height="24" viewBox="0 0 24 24" fill="none" xmlns="http://www.w3.org/2000/svg"><g clip-path="url(#a)"><path d="M12 4.5C8.907 4.523 6.048 5.873 3.986 8M12 4.5v2m0-2c3.13.024 5.99 1.372 8.043 3.5M.755 15.5H3m-2.245 0c.09-2.879 1.317-5.525 3.231-7.5M.755 15.5c-.02.666-.005 1.334-.005 2a2 2 0 0 0 2 2H9M3.986 8 5.5 9.5M20.043 8 18.5 9.5M20.043 8c1.904 1.974 3.114 4.619 3.202 7.5m0 0H21m2.245 0c.02.666.005 1.334.005 2a2 2 0 0 1-2 2H15m-6 0V19c0-1.634 1.366-3 3-3 .172 0 .34.015.505.044M9 19.5h6m0 0V19c0-1.462-1.094-2.71-2.495-2.956m0 0L14 11" stroke="#000" stroke-width="1.5" stroke-linecap="round" stroke-linejoin="round"/></g><defs><clipPath id="a"><path fill="#fff" d="M0 0h24v24H0z"/></clipPath></defs></svg>
